X:96
T:Saint Patrick Day in the Morning,2voices. JGi.096
M:6/8
L:1/8
Q:3/8=100
B:Joshua Gibbons MS,1823,Tealby,Lincs.
Z:Village Music Project, R.Greig, 2009
K:C
[V:1]|:cdc cde|g>ag gec|e>de cAB|A>BAA2G|
[V:2]|:C2C B,2B,|C2C G,3|C3B,2C|D2D,G,3|CB,C B,CB,|
[V:1]cdc cde|g>ag gec|e>de cGG|A3c3:|
[V:2]CB,C G,3|E,2E,F,2F,|G,2 A,,C,3:|
[V:1]|:gab c'2a|b2ga2e|gabc'2a|b2ga2a|
[V:2]|:E,F,G, F,G,A,|E,2B,C2G,|B,2B,C2C|D2D,G,3|
[V:1]gab c'ba|bag abc'|cdc cde|gag gec|ede cAG|
[V:2]C2C C2C|D3G,3|E,2G,F,2A,|F,2B,C2G,|B,2B,C2C|
[V:1]ABAA2G|cdc cde|gag gec|ede cAG|A3c3:|
[V:2]D2 D, G,3|C2CB,2B,|C2CG,3|E,2E,F,2F,|G,2A,,C,3:|

